X: 4189
M: 6/8
L: 1/8
K: D
uA |\
dAF DFA | ded cBA | dcd efg | fed cBA |\
dAF DFA | ded cBA | dcd efg | fdd d2 :|
|: e |\
fgf fga | efe e2c | dcd Bed | cAA A2A |\


